icon-themes/sifr_svg/cmd/sc_insertcellsright.svg

<svg viewBox="0 0 16 16" xmlns="http://www.w3.org/2000/svg"><g fill="#555753"><path d="m0 0v8h2 3 1 1v2 1 2 2 1h9v-9h-1v-7zm2 2h3v2h-3zm4 0h3v2h-3zm4 0h3v2h-3zm-8 3h3v2h-3zm4 0h3v2h-2-1zm4 0h3v2h-3zm-8 4v1c0 .256892.12983.528462.3125.71875l.3710938.28125h-2.6835938v2h2.6835938l-.3710938.28125c-.18267.190301-.3125.494728-.3125.71875v1h.4121094.5878906c.30945 0 .55232-.0903.75-.28125 1.016078-.769594 1.524849-1.321099 2.25-1.939453v-1.615235l-2.25-1.882812c-.19768-.19095-.44055-.28125-.75-.28125h-.5878906zm7 0h5v5h-5z"/><path d="m-14-14h5v5h-5z" opacity=".35" transform="scale(-1)"/></g></svg>

<svg xmlns="http://www.w3.org/2000/svg" viewBox="0 0 16 16">
  <path
     style="fill:#555753"
     d="M 0 0 L 0 8 L 2 8 L 5 8 L 6 8 L 7 8 L 7 10 L 7 11 L 7 13 L 7 15 L 7 16 L 16 16 L 16 7 L 15 7 L 15 0 L 0 0 z M 2 2 L 5 2 L 5 4 L 2 4 L 2 2 z M 6 2 L 9 2 L 9 4 L 6 4 L 6 2 z M 10 2 L 13 2 L 13 4 L 10 4 L 10 2 z M 2 5 L 5 5 L 5 7 L 2 7 L 2 5 z M 6 5 L 9 5 L 9 7 L 7 7 L 6 7 L 6 5 z M 10 5 L 13 5 L 13 7 L 10 7 L 10 5 z M 2 9 L 2 10 C 2 10.256892 2.12983 10.528462 2.3125 10.71875 L 2.6835938 11 L 0 11 L 0 13 L 2.6835938 13 L 2.3125 13.28125 C 2.12983 13.471551 2 13.775978 2 14 L 2 15 L 2.4121094 15 L 3 15 C 3.30945 15 3.55232 14.9097 3.75 14.71875 C 4.766078 13.949156 5.274849 13.397651 6 12.779297 L 6 11.164062 L 3.75 9.28125 C 3.55232 9.0903 3.30945 9 3 9 L 2.4121094 9 L 2 9 z M 9 9 L 14 9 L 14 14 L 9 14 L 9 9 z "
     />
  <rect
     style="opacity:0.35;fill:#555753"
     width="5"
     height="5"
     x="-14"
     y="-14"
     transform="scale(-1)" />
</svg>
